symbols/web/screenshot/materialsymbolsrounded/screenshot_wght200grad200_20px.svg

<svg xmlns="http://www.w3.org/2000/svg" height="20" width="20"><path d="M7.583 8.896q-.166 0-.281-.115-.114-.114-.114-.281V6.833q0-.333.218-.552.219-.219.552-.219h1.667q.167 0 .281.115.115.115.115.281 0 .167-.115.282-.114.114-.281.114H7.979v1.667q0 .146-.114.26-.115.115-.282.115Zm2.792 5.042q-.167 0-.281-.115-.115-.115-.115-.281 0-.167.115-.282.114-.114.281-.114h1.646v-1.667q0-.146.114-.26.115-.115.282-.115.166 0 .281.115.114.114.114.281v1.667q0 .333-.218.552-.219.219-.552.219Zm-4.021 5.104q-.854 0-1.416-.563-.563-.562-.563-1.417V2.938q0-.855.563-1.417Q5.5.958 6.354.958h7.292q.854 0 1.416.563.563.562.563 1.417v14.124q0 .855-.563 1.417-.562.563-1.416.563Zm-.521-4h8.334V4.958H5.833Zm0 1.458v.562q0 .23.146.376.146.145.375.145h7.292q.229 0 .375-.145.146-.146.146-.376V16.5Zm0-13h8.334v-.562q0-.23-.146-.375-.146-.146-.375-.146H6.354q-.229 0-.375.146-.146.145-.146.375Zm0-1.083V3.5 2.417Zm0 15.166V16.5v1.083Z"/></svg>

<svg xmlns="http://www.w3.org/2000/svg" height="20" width="20"><path d="M7.583 8.896Q7.417 8.896 7.302 8.781Q7.188 8.667 7.188 8.5V6.833Q7.188 6.5 7.406 6.281Q7.625 6.062 7.958 6.062H9.625Q9.792 6.062 9.906 6.177Q10.021 6.292 10.021 6.458Q10.021 6.625 9.906 6.74Q9.792 6.854 9.625 6.854H7.979V8.521Q7.979 8.667 7.865 8.781Q7.75 8.896 7.583 8.896ZM10.375 13.938Q10.208 13.938 10.094 13.823Q9.979 13.708 9.979 13.542Q9.979 13.375 10.094 13.26Q10.208 13.146 10.375 13.146H12.021V11.479Q12.021 11.333 12.135 11.219Q12.25 11.104 12.417 11.104Q12.583 11.104 12.698 11.219Q12.812 11.333 12.812 11.5V13.167Q12.812 13.5 12.594 13.719Q12.375 13.938 12.042 13.938ZM6.354 19.042Q5.5 19.042 4.938 18.479Q4.375 17.917 4.375 17.062V2.938Q4.375 2.083 4.938 1.521Q5.5 0.958 6.354 0.958H13.646Q14.5 0.958 15.062 1.521Q15.625 2.083 15.625 2.938V17.062Q15.625 17.917 15.062 18.479Q14.5 19.042 13.646 19.042ZM5.833 15.042H14.167V4.958H5.833ZM5.833 16.5V17.062Q5.833 17.292 5.979 17.438Q6.125 17.583 6.354 17.583H13.646Q13.875 17.583 14.021 17.438Q14.167 17.292 14.167 17.062V16.5ZM5.833 3.5H14.167V2.938Q14.167 2.708 14.021 2.563Q13.875 2.417 13.646 2.417H6.354Q6.125 2.417 5.979 2.563Q5.833 2.708 5.833 2.938ZM5.833 2.417Q5.833 2.417 5.833 2.563Q5.833 2.708 5.833 2.938V3.5V2.938Q5.833 2.708 5.833 2.563Q5.833 2.417 5.833 2.417ZM5.833 17.583Q5.833 17.583 5.833 17.438Q5.833 17.292 5.833 17.062V16.5V17.062Q5.833 17.292 5.833 17.438Q5.833 17.583 5.833 17.583Z"/></svg>
